svg/system/restore_fill.svg

<?xml version="1.0" encoding="UTF-8"?>
<svg width="24px" height="24px" viewBox="0 0 24 24" version="1.1" xmlns="http://www.w3.org/2000/svg" xmlns:xlink="http://www.w3.org/1999/xlink">
    <title>restore_fill</title>
    <g id="页面-1" stroke="none" stroke-width="1" fill="none" fill-rule="evenodd">
        <g id="System" transform="translate(-240.000000, -240.000000)">
            <g id="restore_fill" transform="translate(240.000000, 240.000000)">
                 <path d="M24,0 L24,24 L0,24 L0,0 L24,0 Z M12.5934901,23.257841 L12.5819402,23.2595131 L12.5108777,23.2950439 L12.4918791,23.2987469 L12.4918791,23.2987469 L12.4767152,23.2950439 L12.4056548,23.2595131 C12.3958229,23.2563662 12.3870493,23.2590235 12.3821421,23.2649074 L12.3780323,23.275831 L12.360941,23.7031097 L12.3658947,23.7234994 L12.3769048,23.7357139 L12.4804777,23.8096931 L12.4953491,23.8136134 L12.4953491,23.8136134 L12.5071152,23.8096931 L12.6106902,23.7357139 L12.6232938,23.7196733 L12.6232938,23.7196733 L12.6266527,23.7031097 L12.609561,23.275831 C12.6075724,23.2657013 12.6010112,23.2592993 12.5934901,23.257841 L12.5934901,23.257841 Z M12.8583906,23.1452862 L12.8445485,23.1473072 L12.6598443,23.2396597 L12.6498822,23.2499052 L12.6498822,23.2499052 L12.6471943,23.2611114 L12.6650943,23.6906389 L12.6699349,23.7034178 L12.6699349,23.7034178 L12.678386,23.7104931 L12.8793402,23.8032389 C12.8914285,23.8068999 12.9022333,23.8029875 12.9078286,23.7952264 L12.9118235,23.7811639 L12.8776777,23.1665331 C12.8752882,23.1545897 12.8674102,23.1470016 12.8583906,23.1452862 L12.8583906,23.1452862 Z M12.1430473,23.1473072 C12.1332178,23.1423925 12.1221763,23.1452606 12.1156365,23.1525954 L12.1099173,23.1665331 L12.0757714,23.7811639 C12.0751323,23.7926639 12.0828099,23.8018602 12.0926481,23.8045676 L12.108256,23.8032389 L12.3092106,23.7104931 L12.3186497,23.7024347 L12.3186497,23.7024347 L12.3225043,23.6906389 L12.340401,23.2611114 L12.337245,23.2485176 L12.337245,23.2485176 L12.3277531,23.2396597 L12.1430473,23.1473072 Z" id="MingCute" fill-rule="nonzero"></path>
                <path d="M19,2.5 C20.325472,2.5 21.4100378,3.53153766 21.4946823,4.83562452 L21.5,5 L21.5,15 C21.5,16.325472 20.4684531,17.4100378 19.1643744,17.4946823 L19,17.5 L17.5,17.5 L17.5,19 C17.5,20.325472 16.4684531,21.4100378 15.1643744,21.4946823 L15,21.5 L5,21.5 C3.6745184,21.5 2.58996147,20.4684531 2.50531769,19.1643744 L2.5,19 L2.5,9 C2.5,7.6745184 3.53153766,6.58996147 4.83562452,6.50531769 L5,6.5 L6.5,6.5 L6.5,5 C6.5,3.6745184 7.53153766,2.58996147 8.83562452,2.50531769 L9,2.5 L19,2.5 Z M14.5,9.5 L5.5,9.5 L5.5,18.5 L14.5,18.5 L14.5,9.5 Z M18.5,5.5 L9.5,5.5 L9.5,6.5 L15,6.5 L15.1643744,6.50531769 C16.4141165,6.58643465 17.4135646,7.58587462 17.4946823,8.83562452 L17.5,9 L17.5,14.5 L18.5,14.5 L18.5,5.5 Z" id="形状" fill="#09244B"></path>
            </g>
        </g>
    </g>
</svg>

<svg xmlns="http://www.w3.org/2000/svg" width="24" height="24"><g fill="none" fill-rule="evenodd"><path d="M24 0v24H0V0h24ZM12.593 23.258l-.011.002-.071.035-.02.004-.014-.004-.071-.035c-.01-.004-.019-.001-.024.005l-.004.01-.017.428.005.02.01.013.104.074.015.004.012-.004.104-.074.012-.016.004-.017-.017-.427c-.002-.01-.009-.017-.017-.018Zm.265-.113-.013.002-.185.093-.01.01-.003.011.018.43.005.012.008.007.201.093c.012.004.023 0 .029-.008l.004-.014-.034-.614c-.003-.012-.01-.02-.02-.022Zm-.715.002a.023.023 0 0 0-.027.006l-.006.014-.034.614c0 .012.007.02.017.024l.015-.002.201-.093.01-.008.004-.011.017-.43-.003-.012-.01-.01-.184-.092Z"/><path fill="#09244B" d="M19 2.5a2.5 2.5 0 0 1 2.495 2.336L21.5 5v10a2.5 2.5 0 0 1-2.336 2.495L19 17.5h-1.5V19a2.5 2.5 0 0 1-2.336 2.495L15 21.5H5a2.5 2.5 0 0 1-2.495-2.336L2.5 19V9a2.5 2.5 0 0 1 2.336-2.495L5 6.5h1.5V5a2.5 2.5 0 0 1 2.336-2.495L9 2.5h10Zm-4.5 7h-9v9h9v-9Zm4-4h-9v1H15l.164.005a2.5 2.5 0 0 1 2.33 2.33L17.5 9v5.5h1v-9Z"/></g></svg>
